;FLAVOR:Marlin
;TIME:350
;Filament used: 0.0135853m
;Layer height: 0.1
;MINX:81.938
;MINY:148.79
;MINZ:0.3
;MAXX:148.527
;MAXY:158.827
;MAXZ:0.3
;TARGET_MACHINE.NAME:Unknown
;Generated with Cura_SteamEngine 5.11.0
M104 S225
M105
M109 S225

M82 ;absolute extrusion mode
G92 E0
G92 E0
G1 F120 E-3
;LAYER_COUNT:1
;LAYER:0
M107
;MESH:TESTPRINT1.stl
G0 F300 X98.202 Y153.475 Z0.3
;TYPE:WALL-INNER
G1 F120 E0
G1 F150 X98.407 Y153.265 E0.00566
G1 X98.732 Y153.173 E0.01217
G1 X106.117 Y153.173 E0.15456
G1 X106.117 Y149.203 E0.2311
G1 X90.195 Y149.203 E0.53809
G1 X89.167 Y149.223 E0.55792
G1 X88.466 Y149.2 E0.57144
G1 X82.348 Y149.211 E0.6894
G1 X82.348 Y158.397 E0.86652
G1 X93.863 Y158.417 E1.08853
G1 X95.163 Y158.381 E1.11361
G1 X97.046 Y158.413 E1.14992
G1 X98.542 Y158.413 E1.17876
G1 X98.117 Y157.988 E1.19035
G1 X98.117 Y156.407 E1.22084
G1 X98.248 Y156.107 E1.22715
G1 F154.9 X98.68 Y155.888 E1.23619
G1 X98.248 Y155.669 E1.24523
G1 F150 X98.159 Y155.513 E1.24869
G1 X98.117 Y155.321 E1.25248
G1 X98.117 Y153.721 E1.28333
G1 X98.202 Y153.475 E1.28835
G0 F300 X97.803 Y153.475
G0 X97.803 Y155.888
G0 X98.68 Y155.888
G1 F161 X148.132 Y155.888 E2.17671
G0 F300 X98.285 Y156.042
G0 X97.833 Y158.13
G0 X98.732 Y158.248
;TYPE:WALL-OUTER
G1 F132.3 X98.527 Y157.988 E2.18395
G1 F150 X98.53 Y156.448 E2.21364
G1 X98.57 Y156.361 E2.21549
G1 X98.714 Y156.283 E2.21865
G1 X148.527 Y156.283 E3.17908
G1 X148.527 Y155.493 E3.19432
G1 X98.714 Y155.493 E4.15475
G1 X98.57 Y155.415 E4.15791
G1 X98.53 Y155.328 E4.15975
G1 X98.529 Y153.756 E4.19006
G1 X98.623 Y153.613 E4.19336
G1 X98.732 Y153.583 E4.19554
G1 X106.527 Y153.583 E4.34584
G1 X106.527 Y148.793 E4.43819
G1 X90.187 Y148.793 E4.75324
G1 X89.181 Y148.813 E4.77264
G1 X88.472 Y148.79 E4.78632
G1 X81.938 Y148.801 E4.9123
G1 X81.938 Y158.807 E5.10522
G1 X93.869 Y158.827 E5.33526
G1 X95.156 Y158.791 E5.36009
G1 X97.046 Y158.823 E5.39653
G1 X97.692 Y158.823 E5.40899
G1 F132.3 X98.732 Y158.768 E5.43176
G1 F118.3 X106.472 Y158.768 E5.62103
G1 X106.472 Y158.248 E5.63375
G1 X98.732 Y158.248 E5.82302
G0 F300 X98.606 Y158.087
G0 X97.803 Y158.087
G0 X97.729 Y153.669
;TYPE:SKIN
G1 F150 X97.731 Y155.368 E5.85578
G1 X97.79 Y155.635 E5.86105
G1 X97.928 Y155.888 E5.86661
G1 X97.732 Y156.337 E5.87606
G1 X97.727 Y158.022 E5.90854
G1 X97.051 Y158.023 E5.92158
G1 X95.128 Y157.991 E5.95866
G1 X93.857 Y158.027 E5.98318
G1 X82.738 Y158.007 E6.19756
G1 X82.738 Y149.597 E6.35971
G1 X88.452 Y149.589 E6.46988
G1 X89.153 Y149.613 E6.48341
G1 X90.162 Y149.593 E6.50286
G1 X105.727 Y149.593 E6.80297
G1 X105.727 Y152.783 E6.86448
G1 X98.707 Y152.784 E6.99983
G1 X98.468 Y152.814 E7.00447
G1 X98.22 Y152.922 E7.00969
G1 X97.893 Y153.236 E7.01843
G1 X97.729 Y153.669 E7.02735
G0 F300 X105.152 Y149.798
G1 F150 X105.522 Y150.169 E7.03746
G0 F300 X105.522 Y150.749
G1 F150 X104.572 Y149.798 E7.06337
G0 F300 X103.992 Y149.798
G1 F150 X105.522 Y151.329 E7.10511
G0 F300 X105.522 Y151.908
G1 F150 X103.412 Y149.798 E7.16264
G0 F300 X102.832 Y149.798
G1 F150 X105.522 Y152.488 E7.23599
G0 F300 X105.032 Y152.578
G1 F150 X102.253 Y149.798 E7.31178
G0 F300 X101.673 Y149.798
G1 F150 X104.452 Y152.578 E7.38757
G0 F300 X103.873 Y152.578
G1 F150 X101.093 Y149.798 E7.46337
G0 F300 X100.513 Y149.798
G1 F150 X103.293 Y152.578 E7.53917
G0 F300 X102.714 Y152.579
G1 F150 X99.933 Y149.798 E7.615
G0 F300 X99.353 Y149.798
G1 F150 X102.134 Y152.579 E7.69083
G0 F300 X101.554 Y152.579
G1 F150 X98.774 Y149.798 E7.76665
G0 F300 X98.194 Y149.798
G1 F150 X100.974 Y152.579 E7.84247
G0 F300 X100.395 Y152.58
G1 F150 X97.614 Y149.798 E7.91831
G0 F300 X97.034 Y149.798
G1 F150 X99.815 Y152.58 E7.99415
G0 F300 X99.235 Y152.58
G1 F150 X96.454 Y149.798 E8.07
G0 F300 X95.874 Y149.798
G1 F150 X98.659 Y152.583 E8.14594
G0 F300 X98.203 Y152.707
G1 F150 X95.295 Y149.798 E8.22524
G0 F300 X94.715 Y149.798
G1 F150 X97.883 Y152.966 E8.31163
G0 F300 X97.635 Y153.299
G1 F150 X94.135 Y149.798 E8.40707
G0 F300 X93.555 Y149.798
G1 F150 X97.526 Y153.77 E8.51537
G0 F300 X97.525 Y154.348
G1 F150 X92.975 Y149.798 E8.63943
G0 F300 X92.396 Y149.798
G1 F150 X97.523 Y154.926 E8.77924
G0 F300 X97.564 Y155.547
G1 F150 X91.816 Y149.798 E8.93599
G0 F300 X91.236 Y149.798
G1 F150 X97.59 Y156.153 E9.10926
G0 F300 X97.522 Y156.664
G1 F150 X90.656 Y149.798 E9.29648
G0 F300 X90.078 Y149.8
G1 F150 X97.522 Y157.244 E9.49945
G0 F300 X97.522 Y157.824
G1 F150 X89.509 Y149.811 E9.71795
G0 F300 X88.929 Y149.811
G1 F150 X96.934 Y157.816 E9.93622
G0 F300 X96.344 Y157.806
G1 F150 X88.332 Y149.794 E10.15468
G0 F300 X87.753 Y149.795
G1 F150 X95.754 Y157.796 E10.37285
G0 F300 X95.165 Y157.786
G1 F150 X87.174 Y149.796 E10.59073
G0 F300 X86.596 Y149.797
G1 F150 X94.6 Y157.801 E10.80897
G0 F300 X94.035 Y157.816
G1 F150 X86.017 Y149.798 E11.0276
G0 F300 X85.438 Y149.798
G1 F150 X93.46 Y157.821 E11.24635
G0 F300 X92.879 Y157.82
G1 F150 X84.858 Y149.799 E11.46506
G0 F300 X84.28 Y149.801
G1 F150 X92.298 Y157.818 E11.68368
G0 F300 X91.717 Y157.818
G1 F150 X83.701 Y149.801 E11.90227
G0 F300 X83.122 Y149.802
G1 F150 X91.136 Y157.816 E12.12079
G0 F300 X90.556 Y157.816
G1 F150 X82.943 Y150.203 E12.32837
G0 F300 X82.943 Y150.783
G1 F150 X89.974 Y157.814 E12.52009
G0 F300 X89.394 Y157.814
G1 F150 X82.943 Y151.363 E12.69599
G0 F300 X82.943 Y151.942
G1 F150 X88.813 Y157.812 E12.85605
G0 F300 X88.232 Y157.811
G1 F150 X82.943 Y152.522 E13.00026
G0 F300 X82.943 Y153.102
G1 F150 X87.651 Y157.81 E13.12864
G0 F300 X87.07 Y157.809
G1 F150 X82.943 Y153.682 E13.24117
G0 F300 X82.943 Y154.262
G1 F150 X86.489 Y157.808 E13.33786
G0 F300 X85.908 Y157.806
G1 F150 X82.943 Y154.842 E13.41869
G0 F300 X82.943 Y155.421
G1 F150 X85.327 Y157.806 E13.48371
G0 F300 X84.746 Y157.804
G1 F150 X82.943 Y156.001 E13.53287
G0 F300 X82.943 Y156.581
G1 F150 X84.166 Y157.804 E13.56622
G0 F300 X83.584 Y157.802
G1 F150 X82.943 Y157.161 E13.5837
G0 F300 X82.943 Y157.741
G1 F150 X83.004 Y157.801 E13.58535
G0 F300 X83.004 Y157.777
;TIME_ELAPSED:350.091416
G1 F120 E10.58535

M82 ;absolute extrusion mode
M104 S0
;End of Gcode
;SETTING_3 {"global_quality": "[general]\\nversion = 4\\nname = Fine #2\\ndefini
;SETTING_3 tion = custom\\n\\n[metadata]\\ntype = quality_changes\\nquality_type
;SETTING_3  = normal\\nsetting_version = 25\\n\\n[values]\\nadhesion_type = none
;SETTING_3 \\n\\n", "extruder_quality": ["[general]\\nversion = 4\\nname = Fine 
;SETTING_3 #2\\ndefinition = custom\\n\\n[metadata]\\ntype = quality_changes\\nq
;SETTING_3 uality_type = normal\\nsetting_version = 25\\nposition = 0\\n\\n[valu
;SETTING_3 es]\\ncool_fan_enabled = False\\ninfill_sparse_density = 100\\nretrac
;SETTING_3 tion_amount = 3\\nretraction_speed = 2\\nspeed_print = 5\\nspeed_trav
;SETTING_3 el = 10\\n\\n"]}
